systematic/svg/Atari - XEGS.svg

<?xml version="1.0" encoding="UTF-8" standalone="no"?>
<svg
   xmlns:dc="http://purl.org/dc/elements/1.1/"
   xmlns:cc="http://creativecommons.org/ns#"
   xmlns:rdf="http://www.w3.org/1999/02/22-rdf-syntax-ns#"
   xmlns:svg="http://www.w3.org/2000/svg"
   xmlns="http://www.w3.org/2000/svg"
   viewBox="0 0 320 320"
   height="320"
   width="320"
   xml:space="preserve"
   version="1.1"
   id="svg2"><metadata
     id="metadata8"><rdf:RDF><cc:Work
         rdf:about=""><dc:format>image/svg+xml</dc:format><dc:type
           rdf:resource="http://purl.org/dc/dcmitype/StillImage" /></cc:Work></rdf:RDF></metadata><defs
     id="defs6"><clipPath
       id="clipPath16"
       clipPathUnits="userSpaceOnUse"><path
         id="path18"
         d="M 0,256 256,256 256,0 0,0 0,256 Z" /></clipPath><clipPath
       id="clipPath24"
       clipPathUnits="userSpaceOnUse"><path
         id="path26"
         d="M 4,208 252,208 252,48 4,48 4,208 Z" /></clipPath><clipPath
       id="clipPath56"
       clipPathUnits="userSpaceOnUse"><path
         id="path58"
         d="M 0,256 256,256 256,0 0,0 0,256 Z" /></clipPath></defs><g
     transform="matrix(1.25,0,0,-1.25,0,320)"
     id="g10"><g
       id="g12"><g
         clip-path="url(#clipPath16)"
         id="g14"><g
           id="g20"><g
             id="g22" /><g
             id="g28"><g
               style="opacity:0.5"
               id="g30"
               clip-path="url(#clipPath24)"><path
                 id="path32"
                 style="fill:#ffffff;fill-opacity:1;fill-rule:nonzero;stroke:none"
                 d="M 252,48 4,48 4,208 252,208 252,48 Z" /></g></g></g></g></g><path
       id="path34"
       style="fill:#a6a6a6;fill-opacity:1;fill-rule:nonzero;stroke:none"
       d="m 244,56 -232,0 0,144 232,0 0,-144 z" /><g
       transform="translate(92.1289,88)"
       id="g36"><path
         id="path38"
         style="fill:#999999;fill-opacity:1;fill-rule:nonzero;stroke:none"
         d="m 0,0 -72.129,82.815 0,-9.185 L -8,0 0,0 Z" /></g><g
       transform="translate(20.9678,200)"
       id="g40"><path
         id="path42"
         style="fill:#999999;fill-opacity:1;fill-rule:nonzero;stroke:none"
         d="m 0,0 81.032,-93.037 4,4.593 L 8,0 0,0 Z" /></g><g
       transform="translate(104.9678,200)"
       id="g44"><path
         id="path46"
         style="fill:#999999;fill-opacity:1;fill-rule:nonzero;stroke:none"
         d="m 0,0 -8,0 43.032,-49.407 4,4.592 L 0,0 Z" /></g><g
       transform="translate(16,200)"
       id="g48"><path
         id="path50"
         style="fill:#b3b3b3;fill-opacity:1;fill-rule:nonzero;stroke:none"
         d="M 0,0 0,-116 100,0 0,0 Z" /></g><g
       id="g52"><g
         clip-path="url(#clipPath56)"
         id="g54"><g
           transform="translate(152,70)"
           id="g60"><path
             id="path62"
             style="fill:#3096cf;fill-opacity:1;fill-rule:nonzero;stroke:none"
             d="m 0,0 c 0,-5.522 -4.478,-10 -10,-10 -5.522,0 -10,4.478 -10,10 0,5.522 4.478,10 10,10 C -4.478,10 0,5.522 0,0" /></g><g
           transform="translate(64,102)"
           id="g64"><path
             id="path66"
             style="fill:#9bc2dd;fill-opacity:1;fill-rule:nonzero;stroke:none"
             d="m 0,0 c 0,-5.522 -4.477,-10 -10,-10 -5.523,0 -10,4.478 -10,10 0,5.522 4.477,10 10,10 C -4.477,10 0,5.522 0,0" /></g><g
           transform="translate(180,70)"
           id="g68"><path
             id="path70"
             style="fill:#ffff00;fill-opacity:1;fill-rule:nonzero;stroke:none"
             d="m 0,0 c 0,-5.522 -4.478,-10 -10,-10 -5.522,0 -10,4.478 -10,10 0,5.522 4.478,10 10,10 C -4.478,10 0,5.522 0,0" /></g><g
           transform="translate(208,70)"
           id="g72"><path
             id="path74"
             style="fill:#ed4792;fill-opacity:1;fill-rule:nonzero;stroke:none"
             d="m 0,0 c 0,-5.522 -4.478,-10 -10,-10 -5.522,0 -10,4.478 -10,10 0,5.522 4.478,10 10,10 C -4.478,10 0,5.522 0,0" /></g><g
           transform="translate(236,70)"
           id="g76"><path
             id="path78"
             style="fill:#6700cc;fill-opacity:1;fill-rule:nonzero;stroke:none"
             d="m 0,0 c 0,-5.522 -4.478,-10 -10,-10 -5.522,0 -10,4.478 -10,10 0,5.522 4.478,10 10,10 C -4.478,10 0,5.522 0,0" /></g><g
           transform="translate(104.8311,190.9717)"
           id="g80"><path
             id="path82"
             style="fill:#010101;fill-opacity:1;fill-rule:nonzero;stroke:none"
             d="m 0,0 -32.854,-40.353 10.023,-11.507 34,39.036 L 0,0 Z" /></g><path
           id="path84"
           style="fill:#808080;fill-opacity:1;fill-rule:nonzero;stroke:none"
           d="m 244,84 -232,0 0,4 232,0 0,-4 z" /><g
           transform="translate(60,102)"
           id="g86"><path
             id="path88"
             style="fill:#808080;fill-opacity:1;fill-rule:nonzero;stroke:none"
             d="m 0,0 c 0,-1.104 -0.896,-2 -2,-2 -1.104,0 -2,0.896 -2,2 0,1.104 0.896,2 2,2 1.104,0 2,-0.896 2,-2" /></g><g
           transform="translate(108,200)"
           id="g90"><path
             id="path92"
             style="fill:#808080;fill-opacity:1;fill-rule:nonzero;stroke:none"
             d="M 0,0 -92,-106.814 -92,-116 8,0 0,0 Z" /></g><g
           transform="translate(16,121.1201)"
           id="g94"><path
             id="path96"
             style="fill:#808080;fill-opacity:1;fill-rule:nonzero;stroke:none"
             d="m 0,0 68,78.88 -8,0 L 0,9.218 0,0 Z" /></g><g
           transform="translate(16,102.5596)"
           id="g98"><path
             id="path100"
             style="fill:#808080;fill-opacity:1;fill-rule:nonzero;stroke:none"
             d="m 0,0 84,97.44 -8,0 L 0,9.202 0,0 Z" /></g><g
           transform="translate(16,139.6802)"
           id="g102"><path
             id="path104"
             style="fill:#808080;fill-opacity:1;fill-rule:nonzero;stroke:none"
             d="m 0,0 52,60.32 -8,0 L 0,9.234 0,0 Z" /></g><g
           transform="translate(16,195.3599)"
           id="g106"><path
             id="path108"
             style="fill:#808080;fill-opacity:1;fill-rule:nonzero;stroke:none"
             d="M 0,0 4,4.64 0,4.64 0,0 Z" /></g><g
           transform="translate(16,158.2402)"
           id="g110"><path
             id="path112"
             style="fill:#808080;fill-opacity:1;fill-rule:nonzero;stroke:none"
             d="m 0,0 36,41.76 -8,0 L 0,9.251 0,0 Z" /></g><g
           transform="translate(16,176.7998)"
           id="g114"><path
             id="path116"
             style="fill:#808080;fill-opacity:1;fill-rule:nonzero;stroke:none"
             d="m 0,0 20,23.2 -8,0 L 0,9.268 0,0 Z" /></g></g></g></g></svg>

<?xml version="1.0" encoding="UTF-8" standalone="no"?>
<svg
   xmlns:dc="http://purl.org/dc/elements/1.1/"
   xmlns:cc="http://creativecommons.org/ns#"
   xmlns:rdf="http://www.w3.org/1999/02/22-rdf-syntax-ns#"
   xmlns:svg="http://www.w3.org/2000/svg"
   xmlns="http://www.w3.org/2000/svg"
   viewBox="0 0 341.33334 341.33334"
   height="256"
   width="256"
   xml:space="preserve"
   id="svg2"
   version="1.1"><metadata
     id="metadata8"><rdf:RDF><cc:Work
         rdf:about=""><dc:format>image/svg+xml</dc:format><dc:type
           rdf:resource="http://purl.org/dc/dcmitype/StillImage" /></cc:Work></rdf:RDF></metadata><defs
     id="defs6"><clipPath
       id="clipPath18"
       clipPathUnits="userSpaceOnUse"><path
         id="path16"
         d="M 0,256 H 256 V 0 H 0 Z" /></clipPath><clipPath
       id="clipPath26"
       clipPathUnits="userSpaceOnUse"><path
         id="path24"
         d="M 4,208 H 252 V 48 H 4 Z" /></clipPath><clipPath
       id="clipPath58"
       clipPathUnits="userSpaceOnUse"><path
         id="path56"
         d="M 0,256 H 256 V 0 H 0 Z" /></clipPath></defs><g
     transform="matrix(1.3333333,0,0,-1.3333333,0,341.33333)"
     id="g10"><g
       id="g12"><g
         clip-path="url(#clipPath18)"
         id="g14"><g
           id="g20"><g
             id="g22" /><g
             id="g32"><g
               style="opacity:0.5"
               id="g30"
               clip-path="url(#clipPath26)"><path
                 id="path28"
                 style="fill:#ffffff;fill-opacity:1;fill-rule:nonzero;stroke:none"
                 d="M 252,48 H 4 v 160 h 248 z" /></g></g></g></g></g><path
       id="path34"
       style="fill:#a6a6a6;fill-opacity:1;fill-rule:nonzero;stroke:none"
       d="M 244,56 H 12 v 144 h 232 z" /><g
       transform="translate(92.1289,88)"
       id="g36"><path
         id="path38"
         style="fill:#999999;fill-opacity:1;fill-rule:nonzero;stroke:none"
         d="M 0,0 -72.129,82.815 V 73.63 L -8,0 Z" /></g><g
       transform="translate(20.9678,200)"
       id="g40"><path
         id="path42"
         style="fill:#999999;fill-opacity:1;fill-rule:nonzero;stroke:none"
         d="m 0,0 81.032,-93.037 4,4.593 L 8,0 Z" /></g><g
       transform="translate(104.9678,200)"
       id="g44"><path
         id="path46"
         style="fill:#999999;fill-opacity:1;fill-rule:nonzero;stroke:none"
         d="m 0,0 h -8 l 43.032,-49.407 4,4.592 z" /></g><g
       transform="translate(16,200)"
       id="g48"><path
         id="path50"
         style="fill:#b3b3b3;fill-opacity:1;fill-rule:nonzero;stroke:none"
         d="M 0,0 V -116 L 100,0 Z" /></g><g
       id="g52"><g
         clip-path="url(#clipPath58)"
         id="g54"><g
           transform="translate(152,70)"
           id="g60"><path
             id="path62"
             style="fill:#3096cf;fill-opacity:1;fill-rule:nonzero;stroke:none"
             d="m 0,0 c 0,-5.522 -4.478,-10 -10,-10 -5.522,0 -10,4.478 -10,10 0,5.522 4.478,10 10,10 C -4.478,10 0,5.522 0,0" /></g><g
           transform="translate(64,102)"
           id="g64"><path
             id="path66"
             style="fill:#9bc2dd;fill-opacity:1;fill-rule:nonzero;stroke:none"
             d="m 0,0 c 0,-5.522 -4.477,-10 -10,-10 -5.523,0 -10,4.478 -10,10 0,5.522 4.477,10 10,10 C -4.477,10 0,5.522 0,0" /></g><g
           transform="translate(180,70)"
           id="g68"><path
             id="path70"
             style="fill:#ffff00;fill-opacity:1;fill-rule:nonzero;stroke:none"
             d="m 0,0 c 0,-5.522 -4.478,-10 -10,-10 -5.522,0 -10,4.478 -10,10 0,5.522 4.478,10 10,10 C -4.478,10 0,5.522 0,0" /></g><g
           transform="translate(208,70)"
           id="g72"><path
             id="path74"
             style="fill:#ed4792;fill-opacity:1;fill-rule:nonzero;stroke:none"
             d="m 0,0 c 0,-5.522 -4.478,-10 -10,-10 -5.522,0 -10,4.478 -10,10 0,5.522 4.478,10 10,10 C -4.478,10 0,5.522 0,0" /></g><g
           transform="translate(236,70)"
           id="g76"><path
             id="path78"
             style="fill:#6700cc;fill-opacity:1;fill-rule:nonzero;stroke:none"
             d="m 0,0 c 0,-5.522 -4.478,-10 -10,-10 -5.522,0 -10,4.478 -10,10 0,5.522 4.478,10 10,10 C -4.478,10 0,5.522 0,0" /></g><g
           transform="translate(104.8311,190.9717)"
           id="g80"><path
             id="path82"
             style="fill:#010101;fill-opacity:1;fill-rule:nonzero;stroke:none"
             d="m 0,0 -32.854,-40.353 10.023,-11.507 34,39.036 z" /></g><path
           id="path84"
           style="fill:#808080;fill-opacity:1;fill-rule:nonzero;stroke:none"
           d="M 244,84 H 12 v 4 h 232 z" /><g
           transform="translate(60,102)"
           id="g86"><path
             id="path88"
             style="fill:#808080;fill-opacity:1;fill-rule:nonzero;stroke:none"
             d="m 0,0 c 0,-1.104 -0.896,-2 -2,-2 -1.104,0 -2,0.896 -2,2 0,1.104 0.896,2 2,2 1.104,0 2,-0.896 2,-2" /></g><g
           transform="translate(108,200)"
           id="g90"><path
             id="path92"
             style="fill:#808080;fill-opacity:1;fill-rule:nonzero;stroke:none"
             d="M 0,0 -92,-106.814 V -116 L 8,0 Z" /></g><g
           transform="translate(16,121.1201)"
           id="g94"><path
             id="path96"
             style="fill:#808080;fill-opacity:1;fill-rule:nonzero;stroke:none"
             d="M 0,0 68,78.88 H 60 L 0,9.218 Z" /></g><g
           transform="translate(16,102.5596)"
           id="g98"><path
             id="path100"
             style="fill:#808080;fill-opacity:1;fill-rule:nonzero;stroke:none"
             d="M 0,0 84,97.44 H 76 L 0,9.202 Z" /></g><g
           transform="translate(16,139.6802)"
           id="g102"><path
             id="path104"
             style="fill:#808080;fill-opacity:1;fill-rule:nonzero;stroke:none"
             d="M 0,0 52,60.32 H 44 L 0,9.234 Z" /></g><g
           transform="translate(16,195.3599)"
           id="g106"><path
             id="path108"
             style="fill:#808080;fill-opacity:1;fill-rule:nonzero;stroke:none"
             d="M 0,0 4,4.64 H 0 Z" /></g><g
           transform="translate(16,158.2402)"
           id="g110"><path
             id="path112"
             style="fill:#808080;fill-opacity:1;fill-rule:nonzero;stroke:none"
             d="M 0,0 36,41.76 H 28 L 0,9.251 Z" /></g><g
           transform="translate(16,176.7998)"
           id="g114"><path
             id="path116"
             style="fill:#808080;fill-opacity:1;fill-rule:nonzero;stroke:none"
             d="M 0,0 20,23.2 H 12 L 0,9.268 Z" /></g></g></g></g></svg>
